!!!SOCIAL_FUNCTION:	initiation songs of the first and second degrees
!!!PDT:	1909
!!!OTL: No_2_Song_of_the_Manido.krn
!!!REG: Great_Lakes
!!!LANG: Non-Tone
!!!LING_GROUP: Algonquin
**kern	**kern
*staff2	*staff1
=1-	=1-
*clefF4	*clefF4
*k[b-]	*k[b-]
*M2/4	*M2/4
8GG/L	4c\
8GG/J	.
8GG/L	4c\
8GG/J	.
=2	=2
8GG/L	4.c\
8GG/J	.
8GG/L	.
8GG/J	8c\
=3	=3
2r	4c\
.	4c\
=4	=4
2r	4A\
.	4A\
=5||	=5||
*M3/4	*M3/4
2.r	4G\
.	4A\
.	4A\
=6||	=6||
*M2/4	*M2/4
2r	4.G;\
.	8G\
=7	=7
2r	4G\
.	4G\
=8	=8
2r	4F\
.	4F\
=9||	=9||
*M3/4	*M3/4
2.r	4D\
.	4G\
.	4G\
=10!|:	=10!|:
*M2/4	*M2/4
2r	4.G;\
.	8G\
=11	=11
2r	4G\
.	4G\
=12	=12
2r	4G\
.	4G\
=13||	=13||
*M3/4	*M3/4
2.r	4F\
.	4G\
.	4G\
=14||	=14||
*M2/4	*M2/4
2r	4.F;\
.	8F\
=15	=15
2r	4F\
.	4F\
=16	=16
2r	4D\
.	4D\
=17||	=17||
*M3/4	*M3/4
2.r	4C/
.	4D\
.	4D\
=18||	=18||
*M2/4	*M2/4
2r	4.C/
.	8C/
=19	=19
2r	4C/
.	4C/
=20	=20
2r	4BB-/
.	4BB-/
=21||	=21||
*M3/4	*M3/4
2.r	4BB-/
.	4D\
.	4D\
=22||	=22||
*M2/4	*M2/4
2r	4.D\
.	8D\
=23	=23
2r	4D\
.	4D\
=24	=24
2r	4D\
.	4D\
=25||	=25||
*M3/4	*M3/4
2.r	4C/
.	4D\
.	4D\
=26||	=26||
*M2/4	*M2/4
2r	4.C;/
.	8C/
=27	=27
2r	4C/
.	4C/
=28	=28
2r	4AA/
.	4AA/
=29||	=29||
*M3/4	*M3/4
2.r	4AA/
.	2r
=30	=30
2.r	4r
.	4c\
.	4c\
=31||	=31||
*M2/4	*M2/4
2r	4.c\
.	8c\
=32	=32
2r	4c\
.	4A\
=33	=33
2r	4A\
.	4G\
=34	=34
2r	4A\
.	4A\
==:|!	==:|!
*-	*-
